X: 42243
T: We'll A' To Kelso Go
R: jig
M: 6/8
K: Gmajor
|:GAB gag|fed g2d|ege dBG|ABA cde|
GAB gab|afd g2d|ege dBA|B3 g3:|
|:bgb afa|geg dBd|GAB gdB|AaA cde|
GAB gag|afd g2d|ege dBA|B3 g3:|

